envelope-fill.svg

<svg xmlns="http://www.w3.org/2000/svg" width="16" height="16" fill="currentColor" class="bi bi-envelope-fill" viewBox="0 0 16 16">
  <path d="M.05 3.555A2 2 0 0 1 2 2h12a2 2 0 0 1 1.95 1.555L8 8.414.05 3.555zM0 4.697v7.104l5.803-3.558L0 4.697zM6.761 8.83l-6.57 4.027A2 2 0 0 0 2 14h12a2 2 0 0 0 1.808-1.144l-6.57-4.027L8 9.586l-1.239-.757zm3.436-.586L16 11.801V4.697l-5.803 3.546z"/>
</svg>

<svg xmlns="http://www.w3.org/2000/svg" width="16" height="12" viewBox="0 0 16 12">
  <path id="envelope-fill" d="M.05,3.555A2,2,0,0,1,2,2H14a2,2,0,0,1,1.95,1.555L8,8.414ZM0,4.7v7.1L5.8,8.243ZM6.761,8.83.191,12.857A2,2,0,0,0,2,14H14a2,2,0,0,0,1.808-1.144L9.238,8.829,8,9.586,6.761,8.829ZM10.2,8.244,16,11.8V4.7L10.2,8.243Z" transform="translate(0 -2)" fill="#969696"/>
</svg>
